src/hbcore/resources/themes/icons/hbdefault/scalable/qtg_mono_alarm_snooze.svg

<?xml version="1.0" encoding="UTF-8" standalone="no"?>
<!DOCTYPE svg PUBLIC "-//W3C//DTD SVG 1.1 Tiny//EN" "http://www.w3.org/Graphics/SVG/1.1/DTD/svg11-tiny.dtd">
<svg xmlns="http://www.w3.org/2000/svg" xmlns:xlink="http://www.w3.org/1999/xlink" baseProfile="tiny" height="30px" version="1.1" viewBox="0 0 30 30" width="30px" x="0px" y="0px">
<rect fill="none" height="30" width="30"/>
<path d="M22.21,3.211l0.707-0.707c0.779-0.777,2.054-0.777,2.83,0s0.776,2.051,0,2.828l-0.707,0.707-2.83-2.828z"/>
<path d="M18.9,29v-1.805l6.233-9.879h-5.823v-2.02h9.551v1.771l-6.271,9.914h6.41v2.02h-10.1z"/>
<path d="M9.701,21.1l-4.442-4.44c-0.431,1.676,0.036,3.572,1.399,4.938,0.865,0.863,1.943,1.365,3.043,1.508v-2.006z"/>
<path d="M24.34,3.918c-3.892-3.891-10.25-3.891-14.14,0l-4.25,4.242c-1.913-0.685-2.637-0.191-3.514,0.686l-1.436,1.434,8.729,8.729h7.58v-5.709h9.664c0.77-3.26-0.1-6.849-2.63-9.382z"/>
<path d="M11.46,29v-1.053l3.637-5.762h-3.398v-1.18h5.571v1.031l-3.657,5.783h3.739v1.18h-5.887z"/>
</svg>

<?xml version="1.0" encoding="UTF-8"?>
<!DOCTYPE svg PUBLIC "-//W3C//DTD SVG 1.1 Tiny//EN" "http://www.w3.org/Graphics/SVG/1.1/DTD/svg11-tiny.dtd">
<svg baseProfile="tiny" height="30px" version="1.1" viewBox="0 0 30 30" width="30px" x="0px" xmlns="http://www.w3.org/2000/svg" xmlns:xlink="http://www.w3.org/1999/xlink" y="0px">
<rect fill="none" height="30" width="29.999"/>
<path d="M22.212,3.211l0.707-0.707c0.779-0.777,2.054-0.777,2.83,0c0.776,0.777,0.776,2.051,0,2.828l-0.707,0.707L22.212,3.211z"/>
<path d="M18.896,29v-1.805l6.233-9.879h-5.823V15.3h9.551v1.771l-6.271,9.914h6.41V29H18.896z"/>
<path d="M9.701,21.104L5.259,16.66c-0.431,1.676,0.036,3.572,1.399,4.938c0.865,0.863,1.943,1.365,3.043,1.508V21.104z"/>
<path d="M24.335,3.918c-3.892-3.891-10.253-3.891-14.142,0L5.95,8.16C4.037,7.475,3.313,7.969,2.436,8.846L1,10.281l8.729,8.729  H16.8h0.509v-5.709h9.664C27.743,10.035,26.869,6.451,24.335,3.918z"/>
<path d="M11.463,29v-1.053l3.637-5.762h-3.398V21.01h5.571v1.031l-3.657,5.783h3.739V29H11.463z"/>
</svg>
